dist/assets/img/attention_icon.svg

<svg width="2" height="10" viewBox="0 0 2 10" fill="none" xmlns="http://www.w3.org/2000/svg">
<path d="M1.87343 2.72588V0.681885H0.125V2.72588C0.125 2.85655 0.133385 2.98022 0.150157 3.09688C0.166928 3.21355 0.189989 3.34422 0.219339 3.48888C0.248689 3.63355 0.27175 3.75722 0.288522 3.85988L0.615566 6.12788H1.3577L1.69733 3.85988C1.7141 3.76655 1.73926 3.64522 1.7728 3.49588C1.80634 3.34655 1.8315 3.21355 1.84827 3.09688C1.86504 2.98022 1.87343 2.85655 1.87343 2.72588ZM1.87343 8.14388C1.87343 7.87322 1.78747 7.64455 1.61557 7.45788C1.44366 7.27122 1.23611 7.17788 0.992925 7.17788C0.758124 7.17788 0.554769 7.27122 0.382861 7.45788C0.210953 7.64455 0.125 7.87322 0.125 8.14388C0.125 8.41455 0.210953 8.64555 0.382861 8.83688C0.554769 9.02822 0.758124 9.12388 0.992925 9.12388C1.23611 9.12388 1.44366 9.02822 1.61557 8.83688C1.78747 8.64555 1.87343 8.41455 1.87343 8.14388Z" fill="white"/>
</svg>

<svg width="2" height="10" fill="none" xmlns="http://www.w3.org/2000/svg"><path d="M1.873 2.726V.682H.125v2.044c0 .13.008.254.025.37a7 7 0 00.07.393c.029.145.052.268.069.37l.327 2.269h.742l.34-2.268c.016-.093.041-.215.075-.364a5.26 5.26 0 00.075-.4c.017-.116.025-.24.025-.37zm0 5.418c0-.27-.086-.5-.257-.686a.816.816 0 00-1.233 0 .975.975 0 00-.258.686 1 1 0 00.258.693.808.808 0 001.233 0 1 1 0 00.257-.693z" fill="#fff"/></svg>
